packages/Snapp/src/SunsetIcon/index.svg

<?xml version="1.0" encoding="UTF-8"?>
<svg width="24px" height="24px" viewBox="0 0 24 24" version="1.1" xmlns="http://www.w3.org/2000/svg" xmlns:xlink="http://www.w3.org/1999/xlink">
    <title>Icons/24/Sunset</title>
    <g id="Icons/24/Sunset" stroke="none" stroke-width="1" fill="none" fill-rule="evenodd">
        <rect id="Container" fill-opacity="0" fill="#D8D8D8" fill-rule="nonzero" x="0" y="0" width="24" height="24"></rect>
        <path d="M13,8.22215007 L14.9292569,6.29289322 C15.3197811,5.90236893 15.9529461,5.90236893 16.3434704,6.29289322 C16.7339947,6.68341751 16.7339947,7.31658249 16.3434704,7.70710678 L12.7071068,11.3434704 C12.3165825,11.7339947 11.6834175,11.7339947 11.2928932,11.3434704 L7.65652958,7.70710678 C7.26600529,7.31658249 7.26600529,6.68341751 7.65652958,6.29289322 C8.04705387,5.90236893 8.68021885,5.90236893 9.07074314,6.29289322 L11,8.22215007 L11,4 C11,3.44771525 11.4477153,3 12,3 C12.5522847,3 13,3.44771525 13,4 L13,8.22215007 Z M17,18 C17,18.5522847 16.5522847,19 16,19 C15.4477153,19 15,18.5522847 15,18 C15,16.3431458 13.6568542,15 12,15 C10.3431458,15 9,16.3431458 9,18 C9,18.5522847 8.55228475,19 8,19 C7.44771525,19 7,18.5522847 7,18 C7,15.2385763 9.23857625,13 12,13 C14.7614237,13 17,15.2385763 17,18 Z M5.29289322,12.7071068 C4.90236893,12.3165825 4.90236893,11.6834175 5.29289322,11.2928932 C5.68341751,10.9023689 6.31658249,10.9023689 6.70710678,11.2928932 L7.70710678,12.2928932 C8.09763107,12.6834175 8.09763107,13.3165825 7.70710678,13.7071068 C7.31658249,14.0976311 6.68341751,14.0976311 6.29289322,13.7071068 L5.29289322,12.7071068 Z M4,18 C3.44771525,18 3,17.5522847 3,17 C3,16.4477153 3.44771525,16 4,16 L5,16 C5.55228475,16 6,16.4477153 6,17 C6,17.5522847 5.55228475,18 5,18 L4,18 Z M19,18 C18.4477153,18 18,17.5522847 18,17 C18,16.4477153 18.4477153,16 19,16 L20,16 C20.5522847,16 21,16.4477153 21,17 C21,17.5522847 20.5522847,18 20,18 L19,18 Z M17.7071068,13.7071068 C17.3165825,14.0976311 16.6834175,14.0976311 16.2928932,13.7071068 C15.9023689,13.3165825 15.9023689,12.6834175 16.2928932,12.2928932 L17.2928932,11.2928932 C17.6834175,10.9023689 18.3165825,10.9023689 18.7071068,11.2928932 C19.0976311,11.6834175 19.0976311,12.3165825 18.7071068,12.7071068 L17.7071068,13.7071068 Z M20,20 C20.5522847,20 21,20.4477153 21,21 C21,21.5522847 20.5522847,22 20,22 L4,22 C3.44771525,22 3,21.5522847 3,21 C3,20.4477153 3.44771525,20 4,20 L20,20 Z" id="Shape" fill="#404040" fill-rule="nonzero"></path>
    </g>
</svg>

<svg viewBox="0 0 24 24" xmlns="http://www.w3.org/2000/svg" fill="currentColor" focusable="false">
  <path d="M13 8.222l1.93-1.93a1 1 0 111.413 1.415l-3.636 3.636a1 1 0 01-1.414 0L7.657 7.707A1 1 0 019.07 6.293L11 8.223V4a1 1 0 012 0v4.222zM17 18a1 1 0 01-2 0 3 3 0 00-6 0 1 1 0 01-2 0 5 5 0 0110 0zM5.293 12.707a1 1 0 011.414-1.414l1 1a1 1 0 01-1.414 1.414l-1-1zM4 18a1 1 0 010-2h1a1 1 0 010 2H4zm15 0a1 1 0 010-2h1a1 1 0 010 2h-1zm-1.293-4.293a1 1 0 01-1.414-1.414l1-1a1 1 0 011.414 1.414l-1 1zM20 20a1 1 0 010 2H4a1 1 0 010-2h16z" fill="none"/>
</svg>
